X: 1133
T: Will You Come In?
R:slip jig
N:"Collected by McFadden"
B:O'Neill's 1133
Z:Transcribed by Michael Hogan
M:9/8
L:1/8
K:D
A2F {G}F2E D2F| B2B B2A Bcd| A2F "~"F3 G2A|1 ABA A2F AdB :|2 ABA A2F ABc||
d3 f2d c2A | BcB B2A Bcd | d2d f2d c2B | ABA A2F ABc |
d2d a2d c2A | BcB B2A B2c | d2b a2f d2B | ABA A2F AdB ||


